X: 728
T: the Merry Blacksmith
R: reel
%S: s:4 b:16(4+4+4+4)
B: Francis O'Neill: "The Dance Music of Ireland" (1907) #728
Z: Frank Nordberg - http://www.musicaviva.com
F: http://www.musicaviva.com/abc/tunes/ireland/oneill-1001/0728/oneill-1001-0728-1.abc
%m: Tn = (3n/o/n/
M: C|
L: 1/8
K: D
"^A"[|] A2 \
| d3A (TBA)FA | ABdA TBAFA | ABde fded | Beed egfe ||
| d2dA TBAFA | ABdA TBAFA | ABde fdec | dBAF D2 |]
"^B"[| (fg) \
| a2ag f2Tfe | d2{e}dA TBAFA | ABde fded | Beed egfe ||
| abag fgfe | d3A TBAFA | ABde fdec | dBAF D2 |]
